X:1
T:Title
%%score { ( 1 3 ) | 2 }
L:1/8
M:3/4
K:G
V:1 treble nm="Grand Piano"
V:3 treble 
V:2 treble 
V:1
 z2 z2[Q:1/4=100] D2 | G>A B2 d2 | D>[CE] [B,D]2 G2 | A>B c2 F2 |[M:2/4] G4 |[M:1/4] D2 | %6
[M:3/4] G>A B2 d2 | D>[CE] [B,D]2 G2 | B>A G2 F2 |[M:2/4] G4 |[M:1/4] D2 |[M:3/4] z2 z2 [Fd]2 | %12
 d4 z2 | z2 z2 [^Ge]2 |[M:2/4] e4 |[M:1/4] A2 |[M:3/4] [Fd]>[FA] [FA]2 [Fd]2 |[M:7/8] d>G e3 A2 | %18
[M:3/4] d>[EFc] [DGB]2 [CDA]2 |[M:2/4] [B,DG]4 |] %20
V:2
 z2 z2 [G,B,]2 | [G,B,D]>[G,CD] [G,DG]2 [G,B,G]2 | [G,B,]>[G,,G,] [G,,G,]2 [G,B,D]2 | %3
 [D,F,D]>[D,G,D] [D,A,D]2 [D,CD]2 |[M:2/4] [G,B,D]4 |[M:1/4] [G,B,]2 | %6
[M:3/4][K:treble] [G,B,D]>[G,CD] [G,DG]2 [G,B,G]2 | [G,B,]>[K:bass][G,,F,] [G,,G,]2 [G,B,D]2 | %8
 [D,G,D]>[D,CD] [D,B,D]2 [D,A,D]2 |[M:2/4] [G,B,D]4 |[M:1/4] [G,B,]2 | %11
[M:3/4] [D,F,D]>[D,=F,D] [D,^F,D]2 .[D,A,]2 | [G,B,G]>[A,C] [B,D]2 [B,^DA]2 | %13
 [E,D]>[E,^C] [E,D]2 .[E,B,]2 |[M:2/4][K:treble] [A,^CG]>[A,E] [A,D]2 |[M:1/4] [A,CG]2 | %16
[M:3/4][K:bass] [D,C]>[D,C] [D,C]2 [D,A,]2 |[M:7/8][K:treble] [G,B,=F]>[B,DF] [CG]3 [CD^F]2 | %18
[M:3/4] [B,DG]>[K:bass]C, D,2 D,2 |[M:2/4] G,4 |] %20
V:3
 x6 | x6 | x6 | x6 |[M:2/4] x4 |[M:1/4] x2 |[M:3/4] x6 | x6 | x6 |[M:2/4] x4 |[M:1/4] x2 | %11
[M:3/4] A>^G A2 z C | z z/ F/ G2 B2 | [^GB]>[=G_B] [^G=B]2 z D |[M:2/4] z z/ ^c/ B2 |[M:1/4] x2 | %16
[M:3/4] x6 |[M:7/8] x7 |[M:3/4] x6 |[M:2/4] x4 |] %20

